X:73
T:Joys of Quebec
C:French Canadian
M:4/4
K:A
L:1/8
ee |: "A" (ec)cc c2 ee | (ec)cc c2 ee | fAeA dAcA | "E" (dB)BB B2 dd |
(dB)BB B2 dd | (dB)BB B2 (3(Bcd |1 e2) e(e gf)e(g | "A" fe)cf e2 ee :|2
e2) e(e {f/2g/2}f)e(fg | "A" a6) cd |: "A" e2 z2 "D" f2 z2 | "A" e3 (f e2) A(B |
c2) (cc "D" d2) d(d | "A" c3) (d c2) (cd | cB) A2 G2 A2 | "E" B3 (c B2) (Bc |1
d2) (e2 gf)e(g | "A" fe)df e2 (cd) :|2 d2) (e2 fe)f(g | "A" af)ec A2 |]

